RP-Subscribe2/img/key.svg

<?xml version="1.0" encoding="UTF-8"?>
<svg width="100px" height="100px" viewBox="0 0 100 100" version="1.1" xmlns="http://www.w3.org/2000/svg" xmlns:xlink="http://www.w3.org/1999/xlink">
    <!-- Generator: Sketch 44.1 (41455) - http://www.bohemiancoding.com/sketch -->
    <title>key</title>
    <desc>Created with Sketch.</desc>
    <defs></defs>
    <g id="Page-1" stroke="none" stroke-width="1" fill="none" fill-rule="evenodd">
        <g id="key">
            <path d="M50,0 C77.6142375,1.69088438e-15 100,22.3857625 100,50 C100,77.6142375 77.6142375,100 50,100 C22.3857625,100 3.38176876e-15,77.6142375 0,50 C-3.38176876e-15,22.3857625 22.3857625,5.07265313e-15 50,0 Z" id="Shape" fill="#5CB85C" opacity="0.1"></path>
            <path d="M50,15 C69.3299662,15 85,30.6700338 85,50 C85,69.3299662 69.3299662,85 50,85 C30.6700338,85 15,69.3299662 15,50 C15,30.6700338 30.6700338,15 50,15 Z" id="Shape" fill="#5CB85C"></path>
            <path d="M41,56.4 C41.7918621,56.4032367 42.575531,56.2396884 43.3,55.92 C44.001594,55.6125165 44.634147,55.1670088 45.16,54.61 C45.691846,54.0452537 46.1155307,53.3876951 46.41,52.67 C47.3419534,50.3893769 46.8399801,47.7736253 45.13,46 C44.5992339,45.453789 43.9675716,45.0157006 43.27,44.71 C41.7988383,44.0754629 40.1311617,44.0754629 38.66,44.71 C37.9548465,45.0179772 37.3137514,45.4555501 36.77,46 C36.2249099,46.5505694 35.7933921,47.2029428 35.5,47.92 C34.5566715,50.204275 35.0551909,52.8303341 36.77,54.61 C37.3096444,55.164441 37.9514298,55.6092764 38.66,55.92 C39.3966874,56.2455341 40.1946455,56.4092178 41,56.4 Z M67.8,47.45 C68.4029883,47.444474 68.978978,47.6996593 69.38,48.15 C70.2583519,49.1093137 70.2583519,50.5806863 69.38,51.54 C68.978978,51.9903407 68.4029883,52.245526 67.8,52.24 L67.45,52.24 L67.45,59.7 C67.4597268,60.3142276 67.2133576,60.9047892 66.77,61.33 C65.8606669,62.2365152 64.3893331,62.2365152 63.48,61.33 C63.0366424,60.9047892 62.7902732,60.3142276 62.8,59.7 L62.8,52.24 L60.61,52.24 L60.61,56.89 C60.6197268,57.5042276 60.3733576,58.0947892 59.93,58.52 C59.0206669,59.4265152 57.5493331,59.4265152 56.64,58.52 C56.2113233,58.0879708 55.9797883,57.4982799 56,56.89 L56,52.24 L51.75,52.24 C51.5238943,53.5426584 51.077508,54.7972745 50.43,55.95 C49.1828689,58.1988214 47.1872861,59.9396489 44.79,60.87 C43.5676563,61.3527852 42.2642123,61.5971809 40.95,61.59 C39.4773204,61.6009457 38.018898,61.3010832 36.67,60.71 C35.3605119,60.1376971 34.1750889,59.3157132 33.18,58.29 C28.8825954,53.8223395 28.8825954,46.7576605 33.18,42.29 C34.1750889,41.2642868 35.3605119,40.4423029 36.67,39.87 C39.1729074,38.7881119 41.9936213,38.6987356 44.56,39.62 C45.6919926,40.0261237 46.7469403,40.6212224 47.68,41.38 C48.6125383,42.1460601 49.4190241,43.0537785 50.07,44.07 C50.7406585,45.1080626 51.243496,46.2453528 51.56,47.44 L67.76,47.44 L67.8,47.45 Z" id="Shape" fill="#FFFFFF" fill-rule="nonzero"></path>
        </g>
    </g>
</svg>

<svg id="Layer_1" data-name="Layer 1" xmlns="http://www.w3.org/2000/svg" viewBox="0 0 100 100"><defs><style>.cls-1,.cls-2{fill:#5cb85c;fill-rule:evenodd;}.cls-1{opacity:0.1;}.cls-3{fill:#fff;}</style></defs><title>Untitled-1</title><path class="cls-1" d="M50,0A50,50,0,1,1,0,50,50,50,0,0,1,50,0Z" transform="translate(0)"/><path class="cls-2" d="M50,15A35,35,0,1,1,15,50,35,35,0,0,1,50,15Z" transform="translate(0)"/><path class="cls-3" d="M41,56.4a5.64,5.64,0,0,0,2.3-.48,5.71,5.71,0,0,0,1.86-1.31,6.34,6.34,0,0,0,1.25-1.94A6.22,6.22,0,0,0,45.13,46a5.89,5.89,0,0,0-1.86-1.29,5.82,5.82,0,0,0-4.61,0A6.15,6.15,0,0,0,36.77,46a5.91,5.91,0,0,0-1.27,1.92,6.22,6.22,0,0,0,1.27,6.69,6,6,0,0,0,1.89,1.31A5.63,5.63,0,0,0,41,56.4Zm26.8-8.95a2.09,2.09,0,0,1,1.58.7,2.51,2.51,0,0,1,0,3.39,2.09,2.09,0,0,1-1.58.7H67.45v7.46a2.21,2.21,0,0,1-.68,1.63,2.33,2.33,0,0,1-3.29,0,2.21,2.21,0,0,1-.68-1.63V52.24H60.61v4.65a2.21,2.21,0,0,1-.68,1.63,2.33,2.33,0,0,1-3.29,0A2.21,2.21,0,0,1,56,56.89V52.24H51.75a11.64,11.64,0,0,1-1.32,3.71,11,11,0,0,1-5.64,4.92,10.3,10.3,0,0,1-3.84.72,10.47,10.47,0,0,1-4.28-.88,11,11,0,0,1-3.49-2.42,11.54,11.54,0,0,1,0-16,11,11,0,0,1,3.49-2.42,10.74,10.74,0,0,1,7.89-.25,10.64,10.64,0,0,1,3.12,1.76,11.53,11.53,0,0,1,2.39,2.69,11.76,11.76,0,0,1,1.49,3.37H67.76Z" transform="translate(0)"/></svg>
